src/lib/packages/icons/src/assets/filled/chat-text-check.svg

<svg width="24" height="24" viewBox="0 0 24 24" fill="none" xmlns="http://www.w3.org/2000/svg">
<path d="M10.6211 3.10301C7.32013 3.59401 4.50113 5.96401 3.46513 9.13701C2.69813 11.486 2.93502 13.823 3.83402 15.757C4.04402 16.197 4.04408 16.707 3.89408 17.177L3.054 19.676C2.79 20.461 3.53902 21.21 4.32402 20.946L6.82402 20.106C7.29401 19.956 7.80394 19.956 8.24394 20.166C9.38394 20.696 10.663 20.996 12.003 20.996C12.506 20.996 13.002 20.957 13.481 20.878C13.659 20.849 13.76 20.667 13.71 20.494C13.544 19.908 13.472 19.283 13.514 18.63C13.69 15.93 15.9341 13.685 18.6351 13.509C19.2881 13.467 19.9121 13.539 20.4991 13.705C20.6721 13.754 20.8531 13.653 20.8831 13.476C20.9621 12.997 21.001 12.501 21.001 11.998C21 6.57597 16.2021 2.27301 10.6211 3.10301ZM13 14.75H8.00004C7.58604 14.75 7.25004 14.414 7.25004 14C7.25004 13.586 7.58604 13.25 8.00004 13.25H13C13.414 13.25 13.75 13.586 13.75 14C13.75 14.414 13.414 14.75 13 14.75ZM16 10.75H8.00004C7.58604 10.75 7.25004 10.414 7.25004 9.99998C7.25004 9.58598 7.58604 9.24998 8.00004 9.24998H16C16.414 9.24998 16.75 9.58598 16.75 9.99998C16.75 10.414 16.414 10.75 16 10.75ZM17.667 21.75C17.475 21.75 17.283 21.677 17.137 21.53L15.47 19.863C15.177 19.57 15.177 19.095 15.47 18.802C15.763 18.509 16.238 18.509 16.531 18.802L17.668 19.938L20.471 17.135C20.764 16.842 21.239 16.842 21.532 17.135C21.825 17.428 21.825 17.903 21.532 18.196L18.199 21.529C18.051 21.677 17.859 21.75 17.667 21.75Z" fill="currentColor"/>
</svg>

<svg xmlns="http://www.w3.org/2000/svg" width="24" height="24" fill="none"><path fill="currentColor" d="M10.621 3.103c-3.3.491-6.12 2.861-7.156 6.034-.767 2.349-.53 4.686.369 6.62.21.44.21.95.06 1.42l-.84 2.499a1.003 1.003 0 0 0 1.27 1.27l2.5-.84c.47-.15.98-.15 1.42.06 1.14.53 2.419.83 3.759.83a9.1 9.1 0 0 0 1.478-.118c.178-.029.279-.211.229-.384a5.514 5.514 0 0 1-.196-1.864c.176-2.7 2.42-4.945 5.121-5.121a5.516 5.516 0 0 1 1.864.196c.173.049.354-.052.384-.229a9.1 9.1 0 0 0 .118-1.478C21 6.576 16.202 2.273 10.621 3.103ZM13 14.75H8a.75.75 0 0 1 0-1.5h5a.75.75 0 0 1 0 1.5Zm3-4H8a.75.75 0 0 1 0-1.5h8a.75.75 0 0 1 0 1.5Zm1.667 11a.744.744 0 0 1-.53-.22l-1.667-1.667a.75.75 0 1 1 1.061-1.061l1.137 1.136 2.803-2.803a.75.75 0 1 1 1.061 1.061l-3.333 3.333a.749.749 0 0 1-.532.221Z"/></svg>
